!!!OTL: AUF AUF IHR LIEBEN LEUTE
!!!ARE: Europa, Mitteleuropa, Deutschland
!!!SCT: B0507
!!!YEM: Copyright 1995, estate of Helmut Schaffrath.
**kern
*ICvox
*Ivox
*M6/8
*k[f#c#g#]
*A:
{8e
=1
4a
8a
4cc#
8a
=2
4.ee
4e}
{8e
=3
4a
8e
4c#
8A
=4
4.e
4r}
{8ee
=5
4ee
8cc#
8cc#
8b
8cc#
=6
4.dd
4b}
{8dd
=7
4cc#
8a
8b
8a
8b
=8
4.a
4r}
==
!!!AGN: Wander - Lied
!!!ONB: ESAC (Essen Associative Code) Database: BOEHME
!!!AMT: compound duple
!!!AIN: vox
!!!EED: Helmut Schaffrath
!!!EEV: 1.0
*-
